!!!COM: Masnelli, Paolo
!!!CDT:
!!!OTL: Soavissimo bacio
!!!PTL: Il secondo libro de madrigali a cinque voci
!!!PPP: Venice
!!!PPR: Amadino
!!!PDT: 1596
!!!PUB-format:
!!!RISM: M 1255
!!!rime: 308
!!!AGN: Madrigal
!!!SCT: Trm0308a
!!!SCA: Trm0308a
!!!original-voices: 5
!!!extant-voices: 4
!!!complete: N
!!!final: A
**kern	**text	**kern	**text	**kern	**text	**kern	**text
*part4	*part4	*part3	*part3	*part2	*part2	*part1	*part1
*staff4	*staff4	*staff3	*staff3	*staff2	*staff2	*staff1	*staff1
*I"Basso	*	*I"Tenore	*	*I"Alto	*	*I"Quinto	*
*I'B	*	*I'T	*	*I'A	*	*I'V	*
*oclefC4	*	*oclefC3	*	*oclefC3	*	*oclefC2	*
*clefF4	*	*clefGv2	*	*clefGv2	*	*clefG2	*
*k[]	*	*k[]	*	*k[]	*	*k[]	*
*C:	*	*C:	*	*C:	*	*C:	*
*omet(C)	*	*omet(C)	*	*omet(C)	*	*omet(C)	*
*M4/2	*	*M4/2	*	*M4/2	*	*M4/2	*
=1	=1	=1	=1	=1	=1	=1	=1
0r	.	0r	.	4r	.	1r	.
.	.	.	.	2a	So-	.	.
.	.	.	.	4g#X	-a-	.	.
.	.	.	.	4.a	-vis-	4r	.
.	.	.	.	.	.	2a	So-
.	.	.	.	8a	-si-	.	.
.	.	.	.	2e	-mo	.	.
.	.	.	.	.	.	4g#X	-a-
=2	=2	=2	=2	=2	=2	=2	=2
1r	.	4r	.	2f	ba-	4.a	-vis-
.	.	2a	So-	.	.	.	.
.	.	.	.	.	.	8a	-si-
.	.	.	.	2e	-cio,	2b	-mo
.	.	4g#X	-a-	.	.	.	.
4r	.	4.a	-vis-	2A	So-	2cc	ba-
2A	So-	.	.	.	.	.	.
.	.	8a	-si-	.	.	.	.
.	.	2e	-mo	2B	-a-	2b	-cio,
4G#X	-a-	.	.	.	.	.	.
=3	=3	=3	=3	=3	=3	=3	=3
4.A	-vis-	1e	ba-	4.c	-vis-	1r	.
8A	-si-	.	.	8c	-si-	.	.
2E	-mo	.	.	4B	-mo	.	.
.	.	.	.	2e	ba-	.	.
2F	ba-	4A	-cio,	.	.	2r	.
.	.	4a	Del	4d	.	.	.
2E	-cio,	4gnXi	mio	2e	-cio,	4r	.
.	.	[4a	lun-	.	.	4e	Del
=4	=4	=4	=4	=4	=4	=4	=4
1r	.	4a]	.	1r	.	4d	mio
.	.	2g	-go	.	.	2e	lun-
.	.	4f	ser-	.	.	2d	-go
[1A	Del	2.e	-vir,	2r	.	.	.
.	.	.	.	.	.	4c	ser-
.	.	.	.	4r	.	2A	-vir,
.	.	4f	Del	4d	Del	.	.
=5	=5	=5	=5	=5	=5	=5	=5
2A]	.	4e	mio	4c	mio	1r	.
.	.	2f	lun-	2d	lun-	.	.
2A	mio	.	.	.	.	.	.
.	.	2e	-go	2c	-go	.	.
1A	lun-	.	.	.	.	2r	.
.	.	4d	ser-	4B	ser-	.	.
.	.	2c	-vir	4A	-vir,	2e	Del
.	.	.	.	4c	<Del	.	.
=6	=6	=6	=6	=6	=6	=6	=6
2G	-go	0r	.	4d	mio	2g	mio
.	.	.	.	2e	lun-	.	.
2G	ser-	.	.	.	.	2g	lun-
.	.	.	.	2d	-go	.	.
1E	-vir	.	.	.	.	4g	-go
.	.	.	.	4c	ser-	4e	ser-
.	.	.	.	2B	-vir>	2e	-vir
=7	=7	=7	=7	=7	=7	=7	=7
1E	con	1r	.	2r	.	2r	.
.	.	.	.	2e	con	2g#X	con
2D	tan-	4A	con	2f	tan-	2a	tan-
.	.	4.d	tan-	.	.	.	.
2G	-ta	.	.	2g	-ta	2d	-ta
.	.	8c	.	.	.	.	.
.	.	4B	.	.	.	.	.
=8	=8	=8	=8	=8	=8	=8	=8
1E	fe-	4B	-ta	4g#X	fe-	1e	fe-
.	.	4.e	fe-	2a	.	.	.
.	.	16dL	.	.	.	.	.
.	.	16cJ	.	.	.	.	.
.	.	4B	.	4g#i	.	.	.
1A	-de	1c#X	-de	1a	-de	1e	-de
=9	=9	=9	=9	=9	=9	=9	=9
2r	.	2r	.	1A	Dol-	2r	.
2A	Dol-	2cnXi	Dol-	.	.	2e	Dol-
2.D	-cis-	2.d	-cis-	2.A	-cis-	2.f#X	-cis-
4D	-si-	4d	-si-	4A	-si-	4f#i	-si-
=10	=10	=10	=10	=10	=10	=10	=10
2G	-ma	2d	-ma	4B	-ma	2g	-ma
.	.	.	.	4B	mer-	.	.
2C	mer-	2e	mer-	2.c	-ce-	2g	mer-
1G	-ce-	1d	-ce-	.	.	1g	-ce-
.	.	.	.	8BL	.	.	.
.	.	.	.	8AJ	.	.	.
.	.	.	.	2B	.	.	.
=11	=11	=11	=11	=11	=11	=11	=11
0C	-de!	1e	-de!	2c	-de!	1g	-de!
.	.	.	.	4.c	Fe-	.	.
.	.	.	.	8d	-li-	.	.
.	.	4.c	Fe-	4e	-cis-	2r	.
.	.	.	.	8e	-si-	.	.
.	.	8d	-li-	8f	-mo ar-	.	.
.	.	4e	-cis-	4.g	-di-	4r	.
.	.	8e	-si-	.	.	[4g	Del-
.	.	8f	-mo ar-	8f	.	.	.
=12	=12	=12	=12	=12	=12	=12	=12
1r	.	4.g	-di-	2e	.	8g]	.
.	.	.	.	.	.	8g	-la
.	.	.	.	.	.	4g	ma
.	.	8e	.	.	.	.	.
.	.	8fL	.	2d	-re,	4f	che
.	.	8gJ	.	.	.	.	.
.	.	2a	.	.	.	4d	vi
2r	.	.	.	1r	.	1e	toc-
.	.	4g#X	.	.	.	.	.
4.A	Fe-	4a	-re	.	.	.	.
.	.	[4a	Del-	.	.	.	.
8B	-li-	.	.	.	.	.	.
=13	=13	=13	=13	=13	=13	=13	=13
4c	-cis-	8a]	.	1r	.	2A	-ca
.	.	8a	-la	.	.	.	.
8c	-si-	4a	man	.	.	.	.
8d	-mo ar-	.	.	.	.	.	.
2e	-di-	4gnXi	che	.	.	2r	.
.	.	4e	vi	.	.	.	.
2d	-re	2f	toc-	2r	.	2r	.
4r	.	2e	-ca,	4.A	Fe-	4.c	Fe-
[4A	Del-	.	.	.	.	.	.
.	.	.	.	8B	-li-	8d	-li-
=14	=14	=14	=14	=14	=14	=14	=14
8A]	.	4r	.	4c	-cis-	4e	-cis-
8A	-la	.	.	.	.	.	.
4A	man	4.e	<Del-	8c	-si-	8e	-si-
.	.	.	.	8d	-mo ar-	8f	-mo ar-
4G	che	.	.	2e	-di-	2g	-di-
.	.	8e	-la	.	.	.	.
4E	vi	4e	man	.	.	.	.
1F	toc-	4c	che	4A	-re	1f	-re,
.	.	4d	vi	4.a	Del-	.	.
.	.	4.c	toc-	.	.	.	.
.	.	.	.	8a	-la	.	.
.	.	.	.	4a	man	.	.
.	.	16BL	.	.	.	.	.
.	.	16AJ	.	.	.	.	.
=15	=15	=15	=15	=15	=15	=15	=15
2E	-ca	4.B	.	4g	che	1r	.
.	.	.	.	4e	vi	.	.
.	.	8c	.	.	.	.	.
2r	.	1d	.	1f	toc-	.	.
1r	.	.	.	.	.	2r	.
.	.	[2A	-ca>	2e	-ca	4r	.
.	.	.	.	.	.	[4a	Del-
=16	=16	=16	=16	=16	=16	=16	=16
0r	.	2A]	.	4r	.	8a]	.
.	.	.	.	.	.	8a	-la
.	.	.	.	4.e	Tut-	4a	man
.	.	2r	.	.	.	4g	che
.	.	.	.	8e	-ta	.	.
.	.	.	.	4e	tre-	4e	vi
.	.	1r	.	4.d	-man-	4.f	toc-
.	.	.	.	8c	.	8e	.
.	.	.	.	8dL	.	8fL	.
.	.	.	.	8c	.	8gJ	.
.	.	.	.	8B	.	[4a	.
.	.	.	.	8AJ	.	.	.
=17	=17	=17	=17	=17	=17	=17	=17
0r	.	2r	.	2B	.	4a]	.
.	.	.	.	.	.	4g#X	.
.	.	4r	.	2A	-te,	2a	-ca
.	.	4.e	Tut-	.	.	.	.
.	.	.	.	1r	.	2r	.
.	.	8e	-ta	.	.	.	.
.	.	4e	tre-	.	.	.	.
.	.	8dL	-man-	.	.	4r	.
.	.	8c	.	.	.	.	.
.	.	8c	.	.	.	[4d	Tut-
.	.	16B	.	.	.	.	.
.	.	16AJ	.	.	.	.	.
=18	=18	=18	=18	=18	=18	=18	=18
2r	.	2B	.	2r	.	8d]	.
.	.	.	.	.	.	8d	-ta
.	.	.	.	.	.	4d	tre-
4r	.	4A	-te,	4r	.	4.c	-man-
4.A	Tut-	4.c	Tut-	4.e	Tut-	.	.
.	.	.	.	.	.	8d	.
.	.	.	.	.	.	4e	.
8A	-ta	8c	-ta	8e	-ta	.	.
4A	tre-	4c	tre-	4f	tre-	4c	-te,
4.G	-man-	4.B	-man-	4.e	-man-	2r	.
8F#X	.	8A	.	8d	.	.	.
=19	=19	=19	=19	=19	=19	=19	=19
8GL	.	8BL	.	8eL	.	4r	.
8FnXi	.	8A	.	8dJ	.	.	.
8E	.	8G	.	4.d	.	4.g	Tut-
8DJ	.	8FJ	.	.	.	.	.
2E	.	2G	.	.	.	.	.
.	.	.	.	16c#iL	.	8g	-ta
.	.	.	.	16BJ	.	.	.
.	.	.	.	4c#X	.	4g	tre-
2D	-te	2A	-te	1d	-te	4.f	-man-
.	.	.	.	.	.	8e	.
4r	.	4r	.	.	.	8fL	.
.	.	.	.	.	.	8e	.
4D	il	4A	il	.	.	8d	.
.	.	.	.	.	.	8cJ	.
=20	=20	=20	=20	=20	=20	=20	=20
4E	de-	4G#X	de-	2r	.	4B	.
4F	-li-	4A	-li-	.	.	4A	-te il
4E	-ca-	4B	-ca-	4r	.	4G#X	de-
4A	-to	4c	-to	4cnXi	il	4A	-li-
[1E	se-	1e	se-	2G#X	de-	2B	-ca-
.	.	.	.	2A	-li-	2c	-to
=21	=21	=21	=21	=21	=21	=21	=21
1E]	.	1.e	-no.	4B	-ca-	4B	se-
.	.	.	.	4c	-to	2A	.
.	.	.	.	2B	se-	.	.
.	.	.	.	.	.	4G#X	.
[1A	-no.	.	.	2c#X	-no	2A	-no,
.	.	2r	.	2r	.	4r	.
.	.	.	.	.	.	4a	il
=22	=22	=22	=22	=22	=22	=22	=22
0A]	.	0r	.	1r	.	2e	de-
.	.	.	.	.	.	2f	-li-
.	.	.	.	2r	.	4c#X	-ca-
.	.	.	.	.	.	4d	-to
.	.	.	.	[2a	Men-	2e	se-
=23	=23	=23	=23	=23	=23	=23	=23
1r	.	2r	.	2a]	.	1f#X	-no.
.	.	1a	Men-	4d	-tre	.	.
.	.	.	.	4a	di	.	.
1d	Men-	.	.	4f#X	boc-	2r	.
.	.	.	.	4g	-ca in	.	.
.	.	4d	-tre	4a	boc-	2f#X	Men-
.	.	4d	di	4d	-ca,	.	.
=24	=24	=24	=24	=24	=24	=24	=24
1G	-tre	4B	boc-	2r	.	1g	-tre
.	.	4c	-ca in	.	.	.	.
.	.	2d	boc-	4r	.	.	.
.	.	.	.	4d	Men-	.	.
1r	.	2G	-ca,	4B	-tre	4r	.
.	.	.	.	4d	di	4g	di
.	.	2r	.	4c	boc-	4e	boc-
.	.	.	.	[4d	-ca in	4f#X	-ca in
=25	=25	=25	=25	=25	=25	=25	=25
2G	di	4r	.	4d]	.	2.g	boc-
.	.	4g	di	4.e	boc-	.	.
4E	boc-	4g	boc-	.	.	.	.
.	.	.	.	8d	.	.	.
4F	-ca in	4a	-ca in	2c	.	8fnXiL	.
.	.	.	.	.	.	8eJ	.
2G	boc-	2g	boc-	.	.	2d	.
.	.	.	.	4B	.	.	.
2C	-ca,	2g	-ca	2c	-ca	2c	-ca,
=26	=26	=26	=26	=26	=26	=26	=26
0r	.	4r	.	4r	.	0r	.
.	.	4.a	L'a-	4.f	L'a-	.	.
.	.	8a	-ni-	8f	-ni-	.	.
.	.	4g	-ma	4e	-ma	.	.
.	.	2.f	per	2.d	per	.	.
.	.	4e	dol-	4c	dol-	.	.
=27	=27	=27	=27	=27	=27	=27	=27
0r	.	4d	-cez-	4B-X	-cez-	0r	.
.	.	4c	-z'al-	4A	-z'al-	.	.
.	.	4B	-l'hor	4G	-l'hor	.	.
.	.	4A	vien	4F	vien	.	.
.	.	8G#iL	me-	1E	me-	.	.
.	.	8EJ	.	.	.	.	.
.	.	2A	.	.	.	.	.
.	.	4G#X	.	.	.	.	.
=28	=28	=28	=28	=28	=28	=28	=28
2r	.	2A	-no,	1A	-no,	2r	.
1A	Men-	1c#X	Men-	.	.	1a	Men-
.	.	.	.	2r	.	.	.
2D	-tre	2d	-tre	2A	Men-	4f#X	-tre
.	.	.	.	.	.	4f#i	di
=29	=29	=29	=29	=29	=29	=29	=29
4r	.	2r	.	4G	-tre	4g	boc-
4A	di	.	.	4c	di	4e	-ca in
4F#X	boc-	4r	.	4d	boc-	2d	boc-
4G	-ca in	4g	di	4G	-ca in	.	.
2C	boc-	4e	boc-	2c	boc-	1g	-ca
.	.	4cnXi	-ca in	.	.	.	.
2G	-ca	2d	boc-	2G	-ca	.	.
=30	=30	=30	=30	=30	=30	=30	=30
4r	.	2c	-ca	0r	.	4r	.
4.c	L'a-	.	.	.	.	4.e	L'a-
.	.	2r	.	.	.	.	.
8c	-ni-	.	.	.	.	8e	-ni-
4B	-ma	.	.	.	.	4d	-ma
4A	per	1r	.	.	.	4c	per
4G	dol-	.	.	.	.	4B	dol-
4FnXi	-cez-	.	.	.	.	4A	-cez-
4E	-z'al-	.	.	.	.	4G	-zal-
=31	=31	=31	=31	=31	=31	=31	=31
4D	-l'hor	4r	.	2r	.	4A	-l'hor
4C#X	vien	4.e	L'a-	.	.	4A	vien
2D	me-	.	.	4r	.	4.A	me-
.	.	8e	-ni-	.	.	.	.
.	.	4d	-ma	4.a	L'a-	.	.
.	.	.	.	.	.	8B	.
2E	-no,	4c	per	.	.	8cL	.
.	.	.	.	8a	-ni-	8dJ	.
.	.	4B	dol-	4g	-ma	4e	.
2r	.	4A	-cez-	4f	per	4c	-no,
.	.	4G	-z'al-	4g	dol-	[4e	L'a-
=32	=32	=32	=32	=32	=32	=32	=32
4r	.	4F	-l'hor	4a	-cez-	8e]	.
.	.	.	.	.	.	8e	-ni-
4.A	L'a-	4F	vien	4A	-z'al-	4d	-ma
.	.	2E	me-	4e	-l'hor	4c	per
8A	-ni-	.	.	.	.	.	.
4G	-ma	.	.	4e	vien	4B	dol-
4F	per	1A	-no,	2.d	me-	4A	-cez-
4E	dol-	.	.	.	.	4G	-z'al-
4D	-cez-	.	.	.	.	4F	-l'hor
4C#X	-z'al-	.	.	4e	.	4A	vien
=33	=33	=33	=33	=33	=33	=33	=33
2D	-l'hor	4r	.	2f	.	1A	me-
.	.	4.a	L'a-	.	.	.	.
2A	vien	.	.	2e	-no,	.	.
.	.	8a	-ni-	.	.	.	.
.	.	4g	-ma	.	.	.	.
[1D	me-	4f	per	2.a	per	2A	-no,
.	.	4e	dol-	.	.	.	.
.	.	4d	-cez-	.	.	[2a	per
.	.	4e	-z'al-	4g	dol-	.	.
=34	=34	=34	=34	=34	=34	=34	=34
0D]	.	4f	-l'hor	4f	-cez-	4a]	.
.	.	4g	vien	4e	-z'al-	4g	dol-
.	.	2a	me-	2d	-l'hor	4f	-cez-
.	.	.	.	.	.	4e	-z'al-
.	.	[1Al	-no.	2d	vien	4d	-l'hor
.	.	.	.	.	.	4e	vien
.	.	.	.	2d	me-	2f	me-
=35	=35	=35	=35	=35	=35	=35	=35
0Al	-no.	0A]	.	0c#Xl	-no.	0el	-no.
==	==	==	==	==	==	==	==
*-	*-	*-	*-	*-	*-	*-	*-
!!!system-decoration: [*]
!!!RDF**kern: i = editorial accidental
!!!RDF**kern: l = terminal long
!!!ENC: Emiliano Ricciardi
!!!END: 2019/01/01
!!!EED: Ricciardi, Emiliano
!!!EEV: 2019/01/14
!!!YEC: Copyright 2018 Emiliano Ricciardi, All Rights Reserved
!!!ONB: Translated from MusicXML on 2019/01/14 and edited by Craig Stuart Sapp
!!@@BEGIN:	VERSEDATA
!!@SOLERTI:	308
!!@CATALOGNUM:	Trm0308
!!@LAST_MODIFIED: 2020/07/12
!!@TITLE:		Soavissimo bacio
!!@GENRE:		madrigale
!!@MANUSRC:	E<sub>2</sub>, Flc<sub>2</sub>, V<sub>7</sub>
!!@PRINTSRC:	none
!!@@BEGIN:	VERSES
!!@ABOUTIT:
!!@ABOUTEN:
!!@EDITOR:	Solerti, Angelo
!!@EDITION_TITLE: Le Rime di Torquato Tasso
!!@EDITION_LOC:	Bologna
!!@EDITION_PUB:	Romagnoli-Dall’Acqua
!!@EDITION_DATE:  1898-1902
!!@EDITION_VOL:	2
!!@EDITION_PAGE:  368
!!@TRANSLATOR:	Emiliano Ricciardi and Amyrose McCue Gill
!!@VERSE:
!!	Soavissimo bacio,
!!	Del mio lungo servir con tanta fede
!!	Dolcissima mercede!
!!	Felicissimo ardire
!!	De la man che vi tocca
!!	Tutta tremante il delicato seno.
!!	Mentre di bocca in bocca
!!	L'anima per dolcezza allor vien meno!
!!@TVERSE:
!!	Most pleasing kiss,
!!	For my long service with much faith
!!	Sweetest reward!
!!	Happiest daring
!!	Of the hand that touches,
!!	All atremble, your delicate breast.
!!	While from mouth to mouth
!!	The soul, from sweetness, falters!
!!@@END:		VERSES
!!@OTHER_CRIT_ED:   None
!!@ATTRIBUTION_ABOUT:	Secure
!!		<br>
!!		Secure
!!		<br>
!!		Among other sources, this poem appears in the authoritative manuscript Estense It. 379a, Biblioteca Estense Universitaria, Modena, Italy (see Literary Sources).
!!@DATING:	Mid-1580s or earlier
!!@DEDICATEE:
!!@COMMENTARY:
!!@@END:		VERSEDATA
!!@@BEGIN:	SETTING
!!@CATALOGNUM:	Trm0308a
!!@RIMETITLE:	Soavissimo bacio
!!@SOLERTI:	308
!!@COMPOSER:	Masnelli, Paolo
!!@PRINCEPSTITLE:	Il secondo libro de madrigali a cinque voci
!!@PRINCEPSLOC:	Venetia
!!@NORMLOC:	Venice
!!@NORMPUB:	Amadino
!!@NORMPUBSHORT:	Amadino
!!@PRINCEPSPUB:	Amadino
!!@PRINCEPSYEAR:	1596
!!@PRINCEPSRISM:	M 1255
!!@REPRINTS:	
!!@OVOICES:	5
!!@EXTANTVOICES:	4
!!@PARTBOOKS:	
!!@EXTPARTBOOKS:	
!!@OCLEFS:	C2,C3,C3,C4
!!@OMENSURATION:	C
!!@OKEYSIG:	-
!!@FINAL:	A
!!@TIMPEDITOR:	Ricciardi, Emiliano
!!@NOTE:		
!!@@END:		SETTING
